app/assets/images/icons/active/lightbulb.svg

<?xml version="1.0" encoding="UTF-8" standalone="no"?>
<svg width="32px" height="232px" viewBox="0 0 32 232" version="1.1" xmlns="http://www.w3.org/2000/svg" xmlns:xlink="http://www.w3.org/1999/xlink" xmlns:sketch="http://www.bohemiancoding.com/sketch/ns">
    <title>lightbulb</title>
    <description>Created with Sketch (http://www.bohemiancoding.com/sketch)</description>
    <defs></defs>
    <g id="Actions" stroke="none" stroke-width="1" fill="none" fill-rule="evenodd" sketch:type="MSPage">
        <path d="M21.6615781,138.845766 L21.6687923,138.845766 C21.6698229,138.845766 20.8515298,139.788252 20.3403543,141.237507 C19.9157488,142.432855 19.8714332,144.081683 19.8714332,144.081683 L19.8652496,144.081683 C19.8652496,146.244594 18.1348792,148 16.0005153,148 C13.8651208,148 12.1347504,146.244594 12.1347504,144.081683 C12.1347504,144.081683 12.049211,142.449573 11.6668599,141.237507 C11.2206119,139.818554 10.3384219,138.845766 10.3384219,138.845766 C8.89352657,137.377703 8,135.351672 8,133.112484 C8,128.633064 11.5802899,125 16.0005153,125 C20.4197101,125 24,128.633064 24,133.112484 C24,135.351672 23.1064734,137.377703 21.6615781,138.845766 C21.6615781,138.845766 23.1064734,137.377703 21.6615781,138.845766 L21.6615781,138.845766 L21.6615781,138.845766 Z M14.6123027,145.820371 L17.3856361,145.820371 C17.6577134,145.820371 17.8792915,145.598855 17.8792915,145.320916 C17.8792915,145.047156 17.6577134,144.824596 17.3856361,144.824596 L14.6123027,144.824596 C14.3422866,144.824596 14.1207085,145.047156 14.1207085,145.320916 C14.1207085,145.598855 14.3422866,145.820371 14.6123027,145.820371 C14.6123027,145.820371 14.3422866,145.820371 14.6123027,145.820371 L14.6123027,145.820371 L14.6123027,145.820371 Z M14.0526892,143.445348 L17.9452496,143.445348 C18.2173269,143.445348 18.438905,143.220698 18.438905,142.944848 C18.438905,142.672133 18.2173269,142.449573 17.9452496,142.449573 L14.0526892,142.449573 C13.7806119,142.449573 13.561095,142.672133 13.561095,142.944848 C13.561095,143.220698 13.7806119,143.445348 14.0526892,143.445348 C14.0526892,143.445348 13.7806119,143.445348 14.0526892,143.445348 L14.0526892,143.445348 L14.0526892,143.445348 Z M18.143124,135.878294 C17.9050564,136.069508 17.2269243,136.41223 16.7219324,136.41223 C16.6611272,136.41223 16.6044444,136.40596 16.5549758,136.398646 C16.9507246,135.951436 17.5041546,135.337043 17.4237681,134.4165 C17.3392593,133.623433 16.6910145,133.120843 15.825314,133.120843 C15.098744,133.120843 14.2917874,133.604625 14.2454106,134.45934 C14.2052174,135.253453 14.5813849,135.714247 14.8338808,136.028757 C14.9183897,136.133246 14.996715,136.233554 15.0585507,136.317145 L14.9781643,136.317145 C14.3804187,136.317145 13.7847343,136.047565 13.7785507,136.045475 L12.8767794,135.621252 L14.1454428,140.435035 L14.162963,140.435035 C14.1609018,140.451754 14.152657,140.463247 14.152657,140.477876 C14.152657,140.741187 14.3639291,140.955388 14.6236393,140.955388 C14.8874718,140.955388 15.098744,140.741187 15.098744,140.477876 C15.098744,140.463247 15.0915298,140.451754 15.0894686,140.435035 L15.1049275,140.435035 L14.2278905,137.107078 C14.7895652,137.22724 15.3028019,137.216791 15.7315298,137.079911 C15.8294364,137.149918 15.9283736,137.229329 16.0468921,137.261721 C16.5446699,137.386062 17.1382931,137.426813 17.8102415,137.118572 L17.2104348,140.435035 L17.2145572,140.435035 L17.2104348,140.461158 C17.2104348,140.724468 17.4217069,140.94076 17.6814171,140.94076 C17.9431884,140.94076 18.1565217,140.724468 18.1565217,140.461158 L18.1503382,140.445484 L18.1565217,140.435035 L19.1232206,135.080002 L18.143124,135.878294 L18.143124,135.878294 L18.143124,135.878294 L18.143124,135.878294 Z M15.7995491,135.908595 C15.475942,135.651554 15.2079871,135.31928 15.1172947,134.891923 C15.0585507,134.615028 15.1337842,134.347538 15.3326892,134.153189 C15.4254428,134.061239 15.6604187,133.977649 15.8799356,133.983918 C16.3509179,133.998546 16.5889855,134.351717 16.5683736,134.69235 C16.5529147,135.069553 16.1736554,135.614983 15.7995491,135.908595 L15.7995491,135.908595 Z M15.7995491,135.908595" id="lightbulb--lp-blue" fill="#206FAC" sketch:type="MSShapeGroup"></path>
        <path d="M21.6615781,98.8457659 L21.6687923,98.8457659 C21.6698229,98.8457659 20.8515298,99.7882519 20.3403543,101.237507 C19.9157488,102.432855 19.8714332,104.081683 19.8714332,104.081683 L19.8652496,104.081683 C19.8652496,106.244594 18.1348792,108 16.0005153,108 C13.8651208,108 12.1347504,106.244594 12.1347504,104.081683 C12.1347504,104.081683 12.049211,102.449573 11.6668599,101.237507 C11.2206119,99.8185535 10.3384219,98.8457659 10.3384219,98.8457659 C8.89352657,97.3777031 8,95.3516718 8,93.1124841 C8,88.6330638 11.5802899,85 16.0005153,85 C20.4197101,85 24,88.6330638 24,93.1124841 C24,95.3516718 23.1064734,97.3777031 21.6615781,98.8457659 C21.6615781,98.8457659 23.1064734,97.3777031 21.6615781,98.8457659 L21.6615781,98.8457659 L21.6615781,98.8457659 Z M14.6123027,105.820371 L17.3856361,105.820371 C17.6577134,105.820371 17.8792915,105.598855 17.8792915,105.320916 C17.8792915,105.047156 17.6577134,104.824596 17.3856361,104.824596 L14.6123027,104.824596 C14.3422866,104.824596 14.1207085,105.047156 14.1207085,105.320916 C14.1207085,105.598855 14.3422866,105.820371 14.6123027,105.820371 C14.6123027,105.820371 14.3422866,105.820371 14.6123027,105.820371 L14.6123027,105.820371 L14.6123027,105.820371 Z M14.0526892,103.445348 L17.9452496,103.445348 C18.2173269,103.445348 18.438905,103.220698 18.438905,102.944848 C18.438905,102.672133 18.2173269,102.449573 17.9452496,102.449573 L14.0526892,102.449573 C13.7806119,102.449573 13.561095,102.672133 13.561095,102.944848 C13.561095,103.220698 13.7806119,103.445348 14.0526892,103.445348 C14.0526892,103.445348 13.7806119,103.445348 14.0526892,103.445348 L14.0526892,103.445348 L14.0526892,103.445348 Z M18.143124,95.8782937 C17.9050564,96.0695075 17.2269243,96.4122297 16.7219324,96.4122297 C16.6611272,96.4122297 16.6044444,96.4059604 16.5549758,96.3986462 C16.9507246,95.9514356 17.5041546,95.3370434 17.4237681,94.4165001 C17.3392593,93.6234327 16.6910145,93.1208432 15.825314,93.1208432 C15.098744,93.1208432 14.2917874,93.6046248 14.2454106,94.4593404 C14.2052174,95.2534527 14.5813849,95.7142468 14.8338808,96.028757 C14.9183897,96.1332455 14.996715,96.2335544 15.0585507,96.3171452 L14.9781643,96.3171452 C14.3804187,96.3171452 13.7847343,96.047565 13.7785507,96.0454752 L12.8767794,95.621252 L14.1454428,100.435035 L14.162963,100.435035 C14.1609018,100.451754 14.152657,100.463247 14.152657,100.477876 C14.152657,100.741187 14.3639291,100.955388 14.6236393,100.955388 C14.8874718,100.955388 15.098744,100.741187 15.098744,100.477876 C15.098744,100.463247 15.0915298,100.451754 15.0894686,100.435035 L15.1049275,100.435035 L14.2278905,97.107078 C14.7895652,97.2272397 15.3028019,97.2167908 15.7315298,97.079911 C15.8294364,97.1499182 15.9283736,97.2293295 16.0468921,97.2617209 C16.5446699,97.3860621 17.1382931,97.4268126 17.8102415,97.1185717 L17.2104348,100.435035 L17.2145572,100.435035 L17.2104348,100.461158 C17.2104348,100.724468 17.4217069,100.94076 17.6814171,100.94076 C17.9431884,100.94076 18.1565217,100.724468 18.1565217,100.461158 L18.1503382,100.445484 L18.1565217,100.435035 L19.1232206,95.0800018 L18.143124,95.8782937 L18.143124,95.8782937 L18.143124,95.8782937 L18.143124,95.8782937 Z M15.7995491,95.9085953 C15.475942,95.6515537 15.2079871,95.3192804 15.1172947,94.8919226 C15.0585507,94.6150282 15.1337842,94.3475377 15.3326892,94.1531892 C15.4254428,94.0612393 15.6604187,93.9776486 15.8799356,93.9839179 C16.3509179,93.9985462 16.5889855,94.3517172 16.5683736,94.6923496 C16.5529147,95.069553 16.1736554,95.6149827 15.7995491,95.9085953 L15.7995491,95.9085953 Z M15.7995491,95.9085953" id="lightbulb--white" fill="#FFFFFF" sketch:type="MSShapeGroup"></path>
        <path d="M21.6615781,58.8457659 L21.6687923,58.8457659 C21.6698229,58.8457659 20.8515298,59.7882519 20.3403543,61.2375068 C19.9157488,62.4328548 19.8714332,64.0816827 19.8714332,64.0816827 L19.8652496,64.0816827 C19.8652496,66.2445939 18.1348792,68 16.0005153,68 C13.8651208,68 12.1347504,66.2445939 12.1347504,64.0816827 C12.1347504,64.0816827 12.049211,62.449573 11.6668599,61.2375068 C11.2206119,59.8185535 10.3384219,58.8457659 10.3384219,58.8457659 C8.89352657,57.3777031 8,55.3516718 8,53.1124841 C8,48.6330638 11.5802899,45 16.0005153,45 C20.4197101,45 24,48.6330638 24,53.1124841 C24,55.3516718 23.1064734,57.3777031 21.6615781,58.8457659 C21.6615781,58.8457659 23.1064734,57.3777031 21.6615781,58.8457659 L21.6615781,58.8457659 L21.6615781,58.8457659 Z M14.6123027,65.8203707 L17.3856361,65.8203707 C17.6577134,65.8203707 17.8792915,65.5988552 17.8792915,65.3209159 C17.8792915,65.0471561 17.6577134,64.8245957 17.3856361,64.8245957 L14.6123027,64.8245957 C14.3422866,64.8245957 14.1207085,65.0471561 14.1207085,65.3209159 C14.1207085,65.5988552 14.3422866,65.8203707 14.6123027,65.8203707 C14.6123027,65.8203707 14.3422866,65.8203707 14.6123027,65.8203707 L14.6123027,65.8203707 L14.6123027,65.8203707 Z M14.0526892,63.445348 L17.9452496,63.445348 C18.2173269,63.445348 18.438905,63.2206978 18.438905,62.9448483 C18.438905,62.6721334 18.2173269,62.449573 17.9452496,62.449573 L14.0526892,62.449573 C13.7806119,62.449573 13.561095,62.6721334 13.561095,62.9448483 C13.561095,63.2206978 13.7806119,63.445348 14.0526892,63.445348 C14.0526892,63.445348 13.7806119,63.445348 14.0526892,63.445348 L14.0526892,63.445348 L14.0526892,63.445348 Z M18.143124,55.8782937 C17.9050564,56.0695075 17.2269243,56.4122297 16.7219324,56.4122297 C16.6611272,56.4122297 16.6044444,56.4059604 16.5549758,56.3986462 C16.9507246,55.9514356 17.5041546,55.3370434 17.4237681,54.4165001 C17.3392593,53.6234327 16.6910145,53.1208432 15.825314,53.1208432 C15.098744,53.1208432 14.2917874,53.6046248 14.2454106,54.4593404 C14.2052174,55.2534527 14.5813849,55.7142468 14.8338808,56.028757 C14.9183897,56.1332455 14.996715,56.2335544 15.0585507,56.3171452 L14.9781643,56.3171452 C14.3804187,56.3171452 13.7847343,56.047565 13.7785507,56.0454752 L12.8767794,55.621252 L14.1454428,60.4350354 L14.162963,60.4350354 C14.1609018,60.4517536 14.152657,60.4632473 14.152657,60.4778757 C14.152657,60.7411866 14.3639291,60.955388 14.6236393,60.955388 C14.8874718,60.955388 15.098744,60.7411866 15.098744,60.4778757 C15.098744,60.4632473 15.0915298,60.4517536 15.0894686,60.4350354 L15.1049275,60.4350354 L14.2278905,57.107078 C14.7895652,57.2272397 15.3028019,57.2167908 15.7315298,57.079911 C15.8294364,57.1499182 15.9283736,57.2293295 16.0468921,57.2617209 C16.5446699,57.3860621 17.1382931,57.4268126 17.8102415,57.1185717 L17.2104348,60.4350354 L17.2145572,60.4350354 L17.2104348,60.4611576 C17.2104348,60.7244685 17.4217069,60.9407596 17.6814171,60.9407596 C17.9431884,60.9407596 18.1565217,60.7244685 18.1565217,60.4611576 L18.1503382,60.4454843 L18.1565217,60.4350354 L19.1232206,55.0800018 L18.143124,55.8782937 L18.143124,55.8782937 L18.143124,55.8782937 L18.143124,55.8782937 Z M15.7995491,55.9085953 C15.475942,55.6515537 15.2079871,55.3192804 15.1172947,54.8919226 C15.0585507,54.6150282 15.1337842,54.3475377 15.3326892,54.1531892 C15.4254428,54.0612393 15.6604187,53.9776486 15.8799356,53.9839179 C16.3509179,53.9985462 16.5889855,54.3517172 16.5683736,54.6923496 C16.5529147,55.069553 16.1736554,55.6149827 15.7995491,55.9085953 L15.7995491,55.9085953 Z M15.7995491,55.9085953" id="lightbulb--body-grey" fill="#67737B" sketch:type="MSShapeGroup"></path>
        <path d="M21.6615781,18.8457659 L21.6687923,18.8457659 C21.6698229,18.8457659 20.8515298,19.7882519 20.3403543,21.2375068 C19.9157488,22.4328548 19.8714332,24.0816827 19.8714332,24.0816827 L19.8652496,24.0816827 C19.8652496,26.2445939 18.1348792,28 16.0005153,28 C13.8651208,28 12.1347504,26.2445939 12.1347504,24.0816827 C12.1347504,24.0816827 12.049211,22.449573 11.6668599,21.2375068 C11.2206119,19.8185535 10.3384219,18.8457659 10.3384219,18.8457659 C8.89352657,17.3777031 8,15.3516718 8,13.1124841 C8,8.63306378 11.5802899,5 16.0005153,5 C20.4197101,5 24,8.63306378 24,13.1124841 C24,15.3516718 23.1064734,17.3777031 21.6615781,18.8457659 C21.6615781,18.8457659 23.1064734,17.3777031 21.6615781,18.8457659 L21.6615781,18.8457659 L21.6615781,18.8457659 Z M14.6123027,25.8203707 L17.3856361,25.8203707 C17.6577134,25.8203707 17.8792915,25.5988552 17.8792915,25.3209159 C17.8792915,25.0471561 17.6577134,24.8245957 17.3856361,24.8245957 L14.6123027,24.8245957 C14.3422866,24.8245957 14.1207085,25.0471561 14.1207085,25.3209159 C14.1207085,25.5988552 14.3422866,25.8203707 14.6123027,25.8203707 C14.6123027,25.8203707 14.3422866,25.8203707 14.6123027,25.8203707 L14.6123027,25.8203707 L14.6123027,25.8203707 Z M14.0526892,23.445348 L17.9452496,23.445348 C18.2173269,23.445348 18.438905,23.2206978 18.438905,22.9448483 C18.438905,22.6721334 18.2173269,22.449573 17.9452496,22.449573 L14.0526892,22.449573 C13.7806119,22.449573 13.561095,22.6721334 13.561095,22.9448483 C13.561095,23.2206978 13.7806119,23.445348 14.0526892,23.445348 C14.0526892,23.445348 13.7806119,23.445348 14.0526892,23.445348 L14.0526892,23.445348 L14.0526892,23.445348 Z M18.143124,15.8782937 C17.9050564,16.0695075 17.2269243,16.4122297 16.7219324,16.4122297 C16.6611272,16.4122297 16.6044444,16.4059604 16.5549758,16.3986462 C16.9507246,15.9514356 17.5041546,15.3370434 17.4237681,14.4165001 C17.3392593,13.6234327 16.6910145,13.1208432 15.825314,13.1208432 C15.098744,13.1208432 14.2917874,13.6046248 14.2454106,14.4593404 C14.2052174,15.2534527 14.5813849,15.7142468 14.8338808,16.028757 C14.9183897,16.1332455 14.996715,16.2335544 15.0585507,16.3171452 L14.9781643,16.3171452 C14.3804187,16.3171452 13.7847343,16.047565 13.7785507,16.0454752 L12.8767794,15.621252 L14.1454428,20.4350354 L14.162963,20.4350354 C14.1609018,20.4517536 14.152657,20.4632473 14.152657,20.4778757 C14.152657,20.7411866 14.3639291,20.955388 14.6236393,20.955388 C14.8874718,20.955388 15.098744,20.7411866 15.098744,20.4778757 C15.098744,20.4632473 15.0915298,20.4517536 15.0894686,20.4350354 L15.1049275,20.4350354 L14.2278905,17.107078 C14.7895652,17.2272397 15.3028019,17.2167908 15.7315298,17.079911 C15.8294364,17.1499182 15.9283736,17.2293295 16.0468921,17.2617209 C16.5446699,17.3860621 17.1382931,17.4268126 17.8102415,17.1185717 L17.2104348,20.4350354 L17.2145572,20.4350354 L17.2104348,20.4611576 C17.2104348,20.7244685 17.4217069,20.9407596 17.6814171,20.9407596 C17.9431884,20.9407596 18.1565217,20.7244685 18.1565217,20.4611576 L18.1503382,20.4454843 L18.1565217,20.4350354 L19.1232206,15.0800018 L18.143124,15.8782937 L18.143124,15.8782937 L18.143124,15.8782937 L18.143124,15.8782937 Z M15.7995491,15.9085953 C15.475942,15.6515537 15.2079871,15.3192804 15.1172947,14.8919226 C15.0585507,14.6150282 15.1337842,14.3475377 15.3326892,14.1531892 C15.4254428,14.0612393 15.6604187,13.9776486 15.8799356,13.9839179 C16.3509179,13.9985462 16.5889855,14.3517172 16.5683736,14.6923496 C16.5529147,15.069553 16.1736554,15.6149827 15.7995491,15.9085953 L15.7995491,15.9085953 Z M15.7995491,15.9085953" id="lightbulb--title-grey" fill="#3A434E" sketch:type="MSShapeGroup"></path>
    </g>
</svg>

<svg width="32" height="232" viewBox="0 0 32 232" xmlns="http://www.w3.org/2000/svg" xmlns:sketch="http://www.bohemiancoding.com/sketch/ns"><title>lightbulb</title><g sketch:type="MSPage" fill="none"><path d="M21.662 138.846h.007c.001 0-.817.942-1.328 2.392-.425 1.195-.469 2.844-.469 2.844h-.006c0 2.163-1.73 3.918-3.865 3.918-2.135 0-3.866-1.755-3.866-3.918 0 0-.086-1.632-.468-2.844-.446-1.419-1.328-2.392-1.328-2.392-1.445-1.468-2.338-3.494-2.338-5.733 0-4.479 3.58-8.112 8.001-8.112 4.419 0 7.999 3.633 7.999 8.112 0 2.239-.894 4.265-2.338 5.733zm-7.049 6.975h2.773c.272 0 .494-.222.494-.499 0-.274-.222-.496-.494-.496h-2.773c-.27 0-.492.223-.492.496 0 .278.222.499.492.499zm-.56-2.375h3.893c.272 0 .494-.225.494-.5 0-.273-.222-.495-.494-.495h-3.893c-.272 0-.492.223-.492.495 0 .276.22.5.492.5zm4.09-7.567c-.238.191-.916.534-1.421.534l-.167-.014c.396-.447.949-1.062.869-1.982-.085-.793-.733-1.296-1.598-1.296-.727 0-1.534.484-1.58 1.338-.04.794.336 1.255.588 1.569l.225.288h-.08c-.598 0-1.193-.27-1.2-.272l-.902-.424 1.269 4.814h.018l-.01.043c0 .263.211.478.471.478.264 0 .475-.214.475-.478l-.009-.043h.015l-.877-3.328c.562.12 1.075.11 1.504-.027.098.07.197.149.315.182.498.124 1.091.165 1.763-.143l-.6 3.316h.004l-.004.026c0 .263.211.48.471.48.262 0 .475-.216.475-.48l-.006-.016.006-.01.967-5.355-.98.798zm-2.344.03c-.324-.257-.592-.589-.682-1.017-.059-.277.016-.544.215-.739.093-.092.328-.176.547-.169.471.015.709.368.688.708-.015.377-.395.923-.769 1.216zm0 0" fill="#206FAC" sketch:type="MSShapeGroup"/><path d="M21.662 98.846h.007c.001 0-.817.942-1.328 2.392-.425 1.195-.469 2.844-.469 2.844h-.006c0 2.163-1.73 3.918-3.865 3.918-2.135 0-3.866-1.755-3.866-3.918 0 0-.086-1.632-.468-2.844-.446-1.419-1.328-2.392-1.328-2.392-1.445-1.468-2.338-3.494-2.338-5.733 0-4.479 3.58-8.112 8.001-8.112 4.419 0 7.999 3.633 7.999 8.112 0 2.239-.894 4.265-2.338 5.733zm-7.049 6.975h2.773c.272 0 .494-.222.494-.499 0-.274-.222-.496-.494-.496h-2.773c-.27 0-.492.223-.492.496 0 .278.222.499.492.499zm-.56-2.375h3.893c.272 0 .494-.225.494-.501 0-.273-.222-.495-.494-.495h-3.893c-.272 0-.492.223-.492.495 0 .276.22.501.492.501zm4.09-7.567c-.238.191-.916.534-1.421.534l-.167-.014c.396-.447.949-1.062.869-1.982-.085-.793-.733-1.296-1.598-1.296-.727 0-1.534.484-1.58 1.338-.04.794.336 1.255.588 1.569l.225.288h-.08c-.598 0-1.193-.27-1.2-.272l-.902-.424 1.269 4.814h.018l-.01.043c0 .263.211.478.471.478.264 0 .475-.214.475-.478l-.009-.043h.015l-.877-3.328c.562.12 1.075.11 1.504-.027.098.07.197.149.315.182.498.124 1.091.165 1.763-.143l-.6 3.316h.004l-.004.026c0 .263.211.48.471.48.262 0 .475-.216.475-.48l-.006-.016.006-.01.967-5.355-.98.798zm-2.344.03c-.324-.257-.592-.589-.682-1.017-.059-.277.016-.544.215-.739.093-.092.328-.176.547-.169.471.015.709.368.688.708-.015.377-.395.923-.769 1.216zm0 0" fill="#fff" sketch:type="MSShapeGroup"/><path d="M21.662 58.846h.007c.001 0-.817.942-1.328 2.392-.425 1.195-.469 2.844-.469 2.844h-.006c0 2.163-1.73 3.918-3.865 3.918-2.135 0-3.866-1.755-3.866-3.918 0 0-.086-1.632-.468-2.844-.446-1.419-1.328-2.392-1.328-2.392-1.445-1.468-2.338-3.494-2.338-5.733 0-4.479 3.58-8.112 8.001-8.112 4.419 0 7.999 3.633 7.999 8.112 0 2.239-.894 4.265-2.338 5.733zm-7.049 6.975h2.773c.272 0 .494-.222.494-.499 0-.274-.222-.496-.494-.496h-2.773c-.27 0-.492.223-.492.496 0 .278.222.499.492.499zm-.56-2.375h3.893c.272 0 .494-.225.494-.5 0-.273-.222-.495-.494-.495h-3.893c-.272 0-.492.223-.492.495 0 .276.22.5.492.5zm4.09-7.567c-.238.191-.916.534-1.421.534l-.167-.014c.396-.447.949-1.062.869-1.982-.085-.793-.733-1.296-1.598-1.296-.727 0-1.534.484-1.58 1.338-.04.794.336 1.255.588 1.569l.225.288h-.08c-.598 0-1.193-.27-1.2-.272l-.902-.424 1.269 4.814h.018l-.01.043c0 .263.211.478.471.478.264 0 .475-.214.475-.478l-.009-.043h.015l-.877-3.328c.562.12 1.075.11 1.504-.027.098.07.197.149.315.182.498.124 1.091.165 1.763-.143l-.6 3.316h.004l-.004.026c0 .263.211.48.471.48.262 0 .475-.216.475-.48l-.006-.016.006-.01.967-5.355-.98.798zm-2.344.03c-.324-.257-.592-.589-.682-1.017-.059-.277.016-.544.215-.739.093-.092.328-.176.547-.169.471.015.709.368.688.708-.015.377-.395.923-.769 1.216zm0 0" fill="#67737B" sketch:type="MSShapeGroup"/><path d="M21.662 18.846h.007c.001 0-.817.942-1.328 2.392-.425 1.195-.469 2.844-.469 2.844h-.006c0 2.163-1.73 3.918-3.865 3.918-2.135 0-3.866-1.755-3.866-3.918 0 0-.086-1.632-.468-2.844-.446-1.419-1.328-2.392-1.328-2.392-1.445-1.468-2.338-3.494-2.338-5.733 0-4.479 3.58-8.112 8.001-8.112 4.419 0 7.999 3.633 7.999 8.112 0 2.239-.894 4.265-2.338 5.733zm-7.049 6.975h2.773c.272 0 .494-.222.494-.499 0-.274-.222-.496-.494-.496h-2.773c-.27 0-.492.223-.492.496 0 .278.222.499.492.499zm-.56-2.375h3.893c.272 0 .494-.225.494-.5 0-.273-.222-.495-.494-.495h-3.893c-.272 0-.492.223-.492.495 0 .276.22.5.492.5zm4.09-7.567c-.238.191-.916.534-1.421.534l-.167-.014c.396-.447.949-1.062.869-1.982-.085-.793-.733-1.296-1.598-1.296-.727 0-1.534.484-1.58 1.338-.04.794.336 1.255.588 1.569l.225.288h-.08c-.598 0-1.193-.27-1.2-.272l-.902-.424 1.269 4.814h.018l-.01.043c0 .263.211.478.471.478.264 0 .475-.214.475-.478l-.009-.043h.015l-.877-3.328c.562.12 1.075.11 1.504-.027.098.07.197.149.315.182.498.124 1.091.165 1.763-.143l-.6 3.316h.004l-.004.026c0 .263.211.48.471.48.262 0 .475-.216.475-.48l-.006-.016.006-.01.967-5.355-.98.798zm-2.344.03c-.324-.257-.592-.589-.682-1.017-.059-.277.016-.544.215-.739.093-.092.328-.176.547-.169.471.015.709.368.688.708-.015.377-.395.923-.769 1.216zm0 0" fill="#3A434E" sketch:type="MSShapeGroup"/></g></svg>
